img/svg/partners-image-1.svg

<svg width="152" height="50" viewBox="0 0 152 50" fill="none" xmlns="http://www.w3.org/2000/svg">
<g clip-path="url(#clip0)">
<path d="M58.4865 42.911C52.8688 39.3499 45.2448 38.725 32.9496 42.0818C19.8419 45.1128 15.4716 47.0558 9.73215 43.1553C7.52719 41.2393 6.73666 38.1542 7.32696 33.7103C8.6961 26.466 12.3961 19.4946 18.9683 11.7615C22.6366 7.73883 26.0395 4.28662 30.5327 2.90034C33.9764 2.0307 33.6544 4.69386 33.2378 5.07474C32.798 5.07474 32.0594 5.14289 31.4885 5.50947C31.0252 5.86305 29.7535 7.00475 29.6852 8.54051C29.5866 10.8915 32.059 10.4022 33.1255 9.11136C34.2749 7.65675 35.9738 4.87121 34.6375 2.27508C34.0773 1.35102 33.1096 0.712392 31.9081 0.494933C27.7937 0.263548 23.962 2.19356 20.4254 4.32728C12.6914 9.61406 6.50472 16.9397 3.00403 24.9583C0.985896 29.7964 -0.839371 36.7269 1.89645 42.3676C4.0131 46.2815 8.40699 48.3604 13.6493 47.9257C17.3261 47.5455 21.7721 46.3762 24.7623 45.6701C27.7527 44.9628 43.0591 39.7854 48.0884 48.7966C48.0884 48.7966 49.7608 45.602 53.9403 45.5338C57.3765 45.2218 62.3337 46.5127 65.9435 49.1216C64.7408 47.3418 61.3311 44.7188 58.4865 42.911Z" fill="#E61A27"/>
<path d="M34.5103 12.6715C31.6474 10.8232 25.8935 14.3568 21.2848 20.4179C17.0704 25.8548 15.2506 32.1737 17.2312 35.0957C20.177 38.534 25.6462 33.5328 27.972 30.8559L28.272 30.543C29.8537 28.8713 31.0754 26.8598 32.2583 24.9296C32.2583 24.9296 33.3453 23.1628 33.3972 23.0811C34.069 22.9593 34.8783 22.7689 35.7901 22.5106C35.7771 22.5511 32.3013 28.3001 32.6559 31.1536C32.7663 32.0242 32.6822 35.2044 35.8373 36.1691C40.0427 36.8627 43.4007 33.6548 46.3632 30.8008C46.3632 30.8008 46.868 30.3256 47.1535 30.0543C47.0812 30.3388 46.9871 30.7185 46.9871 30.7185C45.7559 34.9317 47.4155 35.8159 48.4536 36.142C51.591 37.0397 55.3391 32.5544 55.3514 32.5544C55.254 33.9672 54.97 35.1358 56.4835 36.0738C57.9119 36.5771 59.3576 35.8097 60.4567 35.0894C64.415 32.3443 67.604 28.0475 70.1796 24.3337H68.5366C68.5172 24.3337 64.4826 30.0882 61.8627 31.3389C61.8585 31.3389 61.3816 31.5798 61.107 31.3893C60.7668 31.1038 60.901 30.5102 61.111 30.0897C61.1242 30.0624 71.227 12.8201 71.227 12.8201H66.457C66.457 12.8201 65.9359 13.6496 65.8935 13.704C65.8614 13.6769 65.7849 13.5343 65.7321 13.466C62.7768 9.44328 56.0843 15.6309 51.0458 22.8065C49.106 25.5656 46.6362 28.6723 44.0754 30.9146C44.0754 30.9146 40.2814 34.3368 38.6605 31.878C38.0679 30.845 38.2502 29.3347 38.5845 28.3428C40.4718 23.0559 43.724 18.2579 47.4249 15.3629C48.4694 14.5616 49.6051 14.3299 50.1684 14.6697C50.7055 14.9828 50.7922 15.7568 50.4525 16.287C49.5906 16.2599 48.8999 16.5176 48.3387 17.0885C47.2328 18.2302 46.8486 19.3312 47.2001 20.3643C48.9082 22.7561 52.3147 18.0265 52.15 15.1453C52.0911 14.1122 51.5312 13.1339 50.6952 12.6578C49.4494 11.9243 47.5491 12.1142 46.3192 12.699C44.6726 13.3104 42.0667 15.4439 40.5454 17.1022C38.6303 19.1819 35.3457 21.4921 34.3187 21.2334C34.6544 20.3498 37.4288 14.7642 34.5103 12.6715ZM57.5075 20.9346C58.4354 19.6709 61.1361 16.2866 61.7945 15.716C64.0089 13.7989 64.894 14.6424 64.9706 15.24C62.904 18.8822 60.4648 23.0547 58.1715 26.8059C58.1763 26.7926 57.4539 27.8795 57.4539 27.8795C56.441 29.4011 55.4212 30.7061 53.7577 31.6164C53.5204 31.6849 53.1294 31.7122 52.8692 31.5211C52.5559 31.3172 52.4323 30.9774 52.4676 30.624C52.5674 29.4555 53.7763 25.8819 57.5075 20.9346ZM31.558 23.1225C31.558 23.1225 31.5163 23.2453 31.4959 23.2854C31.4906 23.2854 29.416 26.6147 29.416 26.6147C28.1641 28.2594 26.601 30.3258 24.647 31.3174C24.0678 31.5076 23.2671 31.6303 22.8591 31.1278C21.9942 30.1083 22.4399 28.6947 22.8021 27.5534L22.9304 27.1456C23.9687 24.3734 25.616 21.9266 27.2198 19.6569C27.2398 19.6436 27.2847 19.63 27.3009 19.63C27.3049 19.6436 27.3113 19.6436 27.3139 19.6709C28.3202 21.5732 30.207 22.4562 31.618 22.8646C31.6265 22.8646 31.6357 22.8781 31.6357 22.9054C31.6359 22.9459 31.6129 23.0007 31.558 23.1225ZM33.5233 19.1953C33.514 19.2224 32.5993 21.2882 32.5993 21.2882C32.467 21.3968 32.2579 21.3426 32.0183 21.2882L31.6076 21.2198C30.3181 20.8259 29.3455 19.9832 29.0456 18.9776C28.6321 17.0205 30.3311 15.4848 31.0796 14.9278C31.7978 14.4381 32.9145 14.18 33.5629 14.6831C33.9628 15.1453 34.1143 15.7431 34.1143 16.3958C34.1145 17.2788 33.8375 18.2709 33.5233 19.1953ZM93.8258 25.5008C93.3657 24.5225 92.2739 23.8973 91.1103 23.9651C87.3317 24.3051 83.6356 27.3629 81.6949 31.7523C80.6766 34.0086 80.1208 35.8703 79.7564 38.833C80.9315 37.5015 83.3282 35.3135 86.048 34.1174C86.048 34.1174 86.4181 31.2771 88.3052 28.7491C89.0193 27.7023 90.4483 26.0173 92.053 26.4655C93.4551 26.9278 92.9622 30.7469 91.0988 34.4428C89.72 37.1613 87.6102 39.8802 85.4754 41.7552C83.5881 43.3316 80.7956 45.2343 78.3525 43.7667C76.8137 42.8702 76.0289 40.994 76.1945 38.575C76.9298 31.712 80.1048 25.868 84.6481 19.2087C89.3328 13.0249 94.4968 6.67816 101.453 3.29354C102.872 2.58694 104.187 2.4239 105.322 2.85881C105.322 2.85881 98.792 6.39237 95.6792 12.9297C94.8873 14.588 93.7859 16.8298 94.895 18.8142C95.4746 19.8469 96.5035 19.9286 97.3321 19.8742C101.148 19.0042 103.613 15.4979 105.627 12.2908C106.795 9.85814 107.833 7.43899 107.833 4.74797C107.833 4.42187 107.816 3.98714 107.788 3.66068C109.611 2.70969 113.349 4.39458 113.349 4.39458C116.27 5.3463 122.49 10.0353 124.588 10.9319C125.611 9.76324 127.293 7.99665 128.24 7.11308L126.869 6.28392C124.675 4.96561 122.355 3.71509 120.072 2.47849C114.886 -0.307236 110.665 0.671047 108.516 1.43224C107.672 1.73104 106.901 1.98935 106.901 1.98935C105.306 0.276985 102.691 0.439661 100.765 0.902061C93.8363 2.859 87.4036 7.62915 80.5069 15.9061C75.4365 22.389 72.2913 27.9885 70.615 33.5197C69.3228 37.2434 68.9301 42.7203 72.0839 45.9686C74.7654 48.7269 78.321 48.1293 80.8317 47.1376C86.2718 44.501 91.1613 38.8198 93.5976 32.2825C94.1857 30.3393 94.838 27.5941 93.8258 25.5008ZM106.335 5.02002C105.615 13.1473 99.1951 17.918 97.6065 18.298C96.6439 18.4879 95.0013 18.0669 96.4678 14.6561C98.6271 10.062 102.314 6.16191 106.27 4.16393C106.366 4.50377 106.363 4.72067 106.335 5.02002ZM144.418 6.05253C140.965 7.98273 137.385 9.23269 133.051 8.79796C131.85 10.1302 130.681 11.5027 129.603 12.9159C135.685 14.4381 142.133 11.0541 145.729 7.83342C149.534 4.58511 151.484 0.494629 151.484 0.494629C151.484 0.494629 148.633 3.70172 144.418 6.05253ZM79.1548 12.8205H74.6248L72.0696 16.9059H76.5986L79.1548 12.8205Z" fill="#E61A27"/>
<path d="M133.033 43.2881C132.546 43.6142 131.862 43.3635 132.118 42.6162C132.755 40.7135 135.289 36.836 135.289 36.836L142.346 24.5191H137.512C137.282 24.8905 136.791 25.7433 136.791 25.7433C136.567 25.3767 135.899 24.5616 135.623 24.3854C134.442 23.6509 132.71 23.9982 131.514 24.664C126.317 27.6543 122.525 33.5625 119.535 38.1699C119.535 38.1699 116.387 43.2916 114.639 43.6725C113.275 43.7813 113.416 41.9729 113.475 41.5516C114.003 38.5068 115.228 35.6123 116.462 32.9892C118.972 31.2768 121.836 29.0345 124.44 26.5747C130.089 21.2602 134.852 15.2395 135.549 13.8941C135.549 13.8941 134.795 14.0438 133.905 14.0707C129.559 20.037 120.664 28.7082 117.968 29.999C119.162 27.1715 126.88 13.6765 133.448 7.22107L134.482 6.24223C136.08 4.70647 137.736 3.13003 139.026 2.87172C139.162 2.85817 139.338 2.87172 139.489 3.18482C139.547 4.38056 139.095 5.26413 138.576 6.26971L137.848 7.73769C137.848 7.73769 138.879 7.54735 139.555 7.32933C140.34 5.87584 141.21 4.24444 140.889 2.30143C140.782 1.67617 140.322 1.20058 139.721 1.09176C137.762 0.724811 135.627 2.15138 133.909 3.30701L133.839 3.34749C125.007 10.1565 117.549 19.969 111.029 33.3695C110.556 33.7224 108.73 34.1441 108.42 33.94C109.064 32.6356 109.875 30.882 110.28 28.9793C110.35 28.4354 110.416 27.8787 110.416 27.3351C110.416 26.1654 110.13 25.0649 109.066 24.3042C107.817 23.6925 106.274 23.9782 105.233 24.4398C100.573 26.3425 97.0891 31.0453 94.5752 34.9181C93.2232 37.3787 91.8752 40.014 91.5019 43.0316C91.239 45.396 91.7743 46.9184 93.1406 47.6796C94.5454 48.3858 96.3136 47.6517 97.0083 47.2987C101.73 44.8523 105.029 39.9464 107.63 35.4613C107.733 35.4479 109.153 35.4074 110.227 35.1352C110.242 35.1352 110.248 35.1352 110.271 35.1493C110.21 35.3525 109.655 36.9839 109.655 36.9839C108.007 41.7401 107.244 44.975 108.801 46.8911C111.026 49.5957 114.709 46.7964 117.706 43.0991C117.063 47.5294 119.396 48.223 121.175 47.8835C123.218 47.3401 125.495 45.1923 126.551 44.0918C126.212 45.3826 126.304 47.6935 128.163 47.9242C129.437 48.1559 130.39 47.474 131.494 46.8894C135.451 44.7691 140.188 37.7036 141.418 35.6609H139.805C138.057 38.2613 135.832 41.6701 133.033 43.2881ZM97.5135 42.8149C97.2625 42.4478 97.1793 42.0467 97.171 41.6129C97.1228 38.9478 100.037 34.1757 102.093 31.5758H102.097C102.959 33.4328 104.911 34.6265 106.089 35.1296C104.626 38.3373 99.6073 45.2068 97.5135 42.8149ZM106.915 33.6956C106.776 33.7914 104.315 32.9755 103.839 30.7331C103.435 28.8025 104.786 27.2941 106.093 26.5338C106.655 26.0985 107.5 25.9496 108.12 26.1661C108.695 26.5474 108.851 27.2274 108.851 27.96C108.851 28.4094 108.79 28.8711 108.737 29.2922L108.725 29.3877C108.313 30.8944 107.704 32.3424 106.915 33.6956ZM126.654 41.9588C126.652 41.9588 126.187 42.3665 126.187 42.3665C125.523 42.9507 124.84 43.5757 124.015 43.263C123.787 43.1817 123.627 42.8829 123.589 42.6511C123.551 40.9794 124.316 39.4305 125.058 37.922L125.248 37.5278C127.382 34.0215 129.863 29.89 133.506 27.0228C134.12 26.5869 134.786 26.2207 135.489 26.5063C135.651 26.6556 135.839 26.9139 135.839 27.1719C135.839 27.2538 135.765 27.471 135.723 27.5388C134.705 29.1569 133.736 30.8553 132.794 32.4861C130.952 35.7071 129.042 39.0362 126.654 41.9588Z" fill="#E61A27"/>
</g>
<defs>
<clipPath id="clip0">
<rect x="0.511108" y="0.463135" width="150.973" height="48.669" fill="white"/>
</clipPath>
</defs>
</svg>

<svg width="152" height="50" viewBox="0 0 152 50" fill="none" xmlns="http://www.w3.org/2000/svg"><g clip-path="url(#clip0)" fill="#E61A27"><path d="M58.486 42.911c-5.617-3.561-13.241-4.186-25.536-.83-13.108 3.032-17.478 4.975-23.218 1.074-2.205-1.916-2.995-5-2.405-9.445 1.37-7.244 5.07-14.215 11.641-21.949 3.669-4.022 7.072-7.474 11.565-8.86 3.443-.87 3.121 1.793 2.705 2.174-.44 0-1.179.068-1.75.434-.463.354-1.735 1.496-1.803 3.032-.098 2.35 2.374 1.861 3.44.57 1.15-1.454 2.849-4.24 1.513-6.836-.56-.924-1.528-1.563-2.73-1.78-4.114-.231-7.946 1.699-11.483 3.832C12.691 9.614 6.505 16.94 3.004 24.958.986 29.796-.839 36.727 1.896 42.368c2.117 3.913 6.511 5.992 11.753 5.558 3.677-.38 8.123-1.55 11.113-2.256 2.99-.707 18.297-5.885 23.326 3.127 0 0 1.673-3.195 5.852-3.263 3.437-.312 8.394.979 12.004 3.588-1.203-1.78-4.613-4.403-7.458-6.211z"/><path d="M34.51 12.671c-2.863-1.848-8.616 1.686-13.225 7.747-4.215 5.437-6.034 11.756-4.054 14.678 2.946 3.438 8.415-1.563 10.741-4.24l.3-.313c1.582-1.672 2.803-3.683 3.986-5.613 0 0 1.087-1.767 1.14-1.849a26 26 0 002.392-.57c-.013.04-3.489 5.79-3.134 8.643.11.87.026 4.05 3.181 5.015 4.206.694 7.564-2.514 10.526-5.368 0 0 .505-.475.79-.747l-.166.665c-1.231 4.213.428 5.097 1.467 5.423 3.137.898 6.885-3.588 6.897-3.588-.097 1.413-.381 2.582 1.133 3.52 1.428.503 2.874-.264 3.973-.985 3.958-2.745 7.147-7.041 9.723-10.755h-1.643c-.02 0-4.054 5.754-6.674 7.005-.005 0-.481.24-.756.05-.34-.285-.206-.879.004-1.3.013-.027 10.116-17.269 10.116-17.269h-4.77s-.521.83-.563.884c-.033-.027-.11-.17-.162-.238-2.955-4.023-9.648 2.165-14.686 9.34-1.94 2.76-4.41 5.866-6.97 8.109 0 0-3.795 3.422-5.416.963-.592-1.033-.41-2.543-.075-3.535 1.887-5.287 5.139-10.085 8.84-12.98 1.044-.801 2.18-1.033 2.743-.693.538.313.624 1.087.285 1.617-.862-.027-1.553.23-2.114.802-1.106 1.141-1.49 2.242-1.139 3.275 1.708 2.392 5.115-2.338 4.95-5.219-.059-1.033-.619-2.011-1.455-2.487-1.246-.734-3.146-.544-4.376.041-1.646.611-4.252 2.745-5.774 4.403-1.915 2.08-5.2 4.39-6.226 4.131.335-.883 3.11-6.469.191-8.562zm22.998 8.264c.927-1.264 3.628-4.648 4.286-5.219 2.215-1.917 3.1-1.074 3.177-.476a427.941 427.941 0 01-6.8 11.566c.005-.013-.717 1.073-.717 1.073-1.013 1.522-2.033 2.827-3.696 3.737-.238.069-.629.096-.889-.095-.313-.204-.437-.544-.401-.897.1-1.168 1.308-4.742 5.04-9.69zm-25.95 2.188s-.042.122-.062.162c-.005 0-2.08 3.33-2.08 3.33-1.252 1.644-2.815 3.71-4.769 4.702-.58.19-1.38.313-1.788-.19-.865-1.019-.42-2.432-.057-3.574l.128-.407c1.039-2.773 2.686-5.22 4.29-7.49a.214.214 0 01.08-.026c.005.014.011.014.014.04 1.006 1.903 2.893 2.786 4.304 3.195.009 0 .018.013.018.04 0 .04-.023.096-.078.217zm1.965-3.928c-.009.027-.924 2.093-.924 2.093-.132.109-.341.055-.58 0l-.411-.068c-1.29-.394-2.262-1.237-2.562-2.242-.414-1.958 1.285-3.493 2.034-4.05.718-.49 1.834-.748 2.483-.245.4.462.551 1.06.551 1.713 0 .883-.276 1.875-.59 2.8zm60.303 6.306c-.46-.979-1.552-1.604-2.716-1.536-3.778.34-7.474 3.398-9.415 7.787-1.018 2.257-1.574 4.118-1.939 7.081 1.175-1.331 3.572-3.52 6.292-4.716 0 0 .37-2.84 2.257-5.368.714-1.047 2.143-2.732 3.748-2.284 1.402.463.91 4.282-.954 7.978-1.379 2.718-3.489 5.437-5.624 7.312-1.887 1.577-4.68 3.48-7.122 2.012-1.54-.897-2.324-2.773-2.158-5.192.735-6.863 3.91-12.707 8.453-19.366 4.685-6.184 9.849-12.53 16.805-15.915 1.419-.707 2.734-.87 3.869-.435 0 0-6.53 3.533-9.643 10.07-.792 1.659-1.893 3.9-.784 5.885.58 1.033 1.609 1.115 2.437 1.06 3.816-.87 6.281-4.376 8.295-7.583 1.168-2.433 2.206-4.852 2.206-7.543 0-.326-.017-.76-.045-1.087 1.823-.951 5.561.734 5.561.734 2.921.951 9.141 5.64 11.239 6.537 1.023-1.169 2.705-2.935 3.652-3.819l-1.371-.83c-2.194-1.317-4.514-2.568-6.797-3.805-5.186-2.785-9.407-1.807-11.556-1.046-.844.299-1.615.557-1.615.557-1.595-1.712-4.21-1.55-6.136-1.087C93.836 2.86 87.404 7.63 80.507 15.906c-5.07 6.483-8.216 12.082-9.892 17.614-1.292 3.723-1.685 9.2 1.469 12.449 2.681 2.758 6.237 2.16 8.748 1.169 5.44-2.637 10.33-8.318 12.766-14.855.588-1.944 1.24-4.689.228-6.782zM106.335 5.02c-.72 8.127-7.14 12.898-8.728 13.278-.963.19-2.606-.231-1.14-3.642 2.16-4.594 5.847-8.494 9.803-10.492.096.34.093.557.065.856zm38.083 1.033c-3.453 1.93-7.033 3.18-11.367 2.745a65.76 65.76 0 00-3.448 4.118c6.082 1.522 12.53-1.862 16.126-5.083 3.805-3.248 5.755-7.338 5.755-7.338s-2.851 3.207-7.066 5.558zM79.155 12.82h-4.53l-2.555 4.086h4.529l2.556-4.085z"/><path d="M133.033 43.288c-.487.326-1.171.076-.915-.672.637-1.902 3.171-5.78 3.171-5.78l7.057-12.317h-4.834c-.23.372-.721 1.224-.721 1.224-.224-.366-.892-1.181-1.168-1.358-1.181-.734-2.913-.387-4.109.279-5.197 2.99-8.989 8.898-11.979 13.506 0 0-3.148 5.122-4.896 5.502-1.364.11-1.223-1.7-1.164-2.12.528-3.045 1.753-5.94 2.987-8.563a66.71 66.71 0 007.978-6.414c5.649-5.315 10.412-11.335 11.109-12.68 0 0-.754.149-1.644.176-4.346 5.966-13.241 14.637-15.937 15.928 1.194-2.827 8.912-16.322 15.48-22.778l1.034-.979c1.598-1.536 3.254-3.112 4.544-3.37.136-.014.312 0 .463.313.058 1.196-.394 2.08-.913 3.085l-.728 1.468s1.031-.19 1.707-.409c.785-1.453 1.655-3.085 1.334-5.028-.107-.625-.567-1.1-1.168-1.21-1.959-.366-4.094 1.06-5.812 2.216l-.07.04c-8.832 6.81-16.29 16.622-22.81 30.023-.473.352-2.299.774-2.609.57.644-1.304 1.455-3.058 1.86-4.96.07-.545.136-1.101.136-1.645 0-1.17-.286-2.27-1.35-3.03-1.249-.613-2.792-.327-3.833.135-4.66 1.902-8.144 6.605-10.658 10.478-1.352 2.46-2.7 5.096-3.073 8.114-.263 2.364.272 3.886 1.639 4.648 1.404.706 3.173-.028 3.867-.381 4.722-2.447 8.021-7.353 10.622-11.838.103-.013 1.523-.054 2.597-.326.015 0 .021 0 .044.014-.061.203-.616 1.835-.616 1.835-1.648 4.756-2.411 7.991-.854 9.907 2.225 2.705 5.908-.095 8.905-3.792-.643 4.43 1.69 5.124 3.469 4.785 2.043-.544 4.32-2.692 5.376-3.792-.339 1.29-.247 3.602 1.612 3.832 1.274.232 2.227-.45 3.331-1.035 3.957-2.12 8.694-9.185 9.924-11.228h-1.613c-1.748 2.6-3.973 6.01-6.772 7.627zm-35.52-.473c-.25-.367-.334-.768-.342-1.202-.048-2.665 2.866-7.437 4.922-10.037h.004c.862 1.857 2.814 3.05 3.992 3.554-1.463 3.207-6.482 10.077-8.576 7.685zm9.402-9.12c-.139.096-2.6-.72-3.076-2.962-.404-1.93.947-3.439 2.254-4.2.562-.434 1.407-.583 2.027-.367.575.381.731 1.061.731 1.794 0 .45-.061.911-.114 1.332l-.012.096a17.957 17.957 0 01-1.81 4.308zm19.739 8.264c-.002 0-.467.407-.467.407-.664.585-1.347 1.21-2.172.897-.228-.081-.388-.38-.426-.612-.038-1.672.727-3.22 1.469-4.729l.19-.394c2.134-3.506 4.615-7.638 8.258-10.505.614-.436 1.28-.802 1.983-.517.162.15.35.408.35.666 0 .082-.074.299-.116.367-1.018 1.618-1.987 3.316-2.929 4.947-1.842 3.221-3.752 6.55-6.14 9.473z"/></g><defs><clipPath id="clip0"><path fill="#fff" d="M.511.463h150.973v48.669H.511z"/></clipPath></defs></svg>
